X: 608
T: Biao guniang
%%abc-version 2.0
%%abcx-abcm2ps-target-version 5.9.1 (29 Sep 2008)
%%abc-creator hum2abc beta
%%abcx-conversion-date 2013/10/02 07:52:30
%%abc-edited-by Helmut Schaffrath
%%humdrum-veritas 1186127507
%%humdrum-veritas-data 1408895837
%%continueall 1
%%barnumbers 0
L: 1/8
M: 2/4
K: A
e e e f [I:setbarnb 1]| 
c BA2 | 
e c B c | 
A4 | 
A B c e | 
B2A c | 
B A F A | 
E4 | 
E3F | 
A2A F | 
e2B c | 
e FA2 | 
c B c e | 
A FE2 | 
c B c e | 
A FE2 | 
A B e c | 
B2A c | 
B BE2 | 
A F E C | 
E4 |]  



